!! 00014] TT[TB
!! Zh. Ch. 1-4908, 60169), J 4000)
!!!OTL: Dui hua
!!!ARE: Asia, China,ÿLiaoning
!! Ethnic Group: Han
!! MM, Komposition
!!!SCT: C0670
!!!YEM: Copyright 1995, estate of Helmut Schaffrath.
**kern
*ICvox
*Ivox
*M2/4
*k[f#c#]
*D:
{8b
8b
8b
8f#
=1
4b
8a
8f#
=2
8b
16b
16b
8b
8f#
=3
4e
4e}
=4
{4e
8f#
8e
=5
4d
4B
=6
8b
8b
8b
8f#
=7
4a
4a}
=8
{8b
8b
8b
8f#
=9
4b
8a
8f#
=10
8b
16b
16b
8b
8f#
=11
4e
4e}
=12
{8e
8e
8f#
8e
=13
4d
4B
=14
8b
8b
8b
8f#
=15
4a
4a}
=16
{8b
8b
8b
8f#
=17
4b
8a
8f#
=18
8b
16b
16b
8b
8f#
=19
4e
4e}
=20
{4e
8f#
8e
=21
4d
4B
=22
8b
8b
8b
8f#
=23
4a
4a}
=24
{8.a
16f#
4e
=25
8b
8d
4e}
=26
{8.a
16f#
8a
8f#
=27
8a
8d
4e}
=28
{8a
8a
8f#
8a
=29
8a
8d
4e}
=30
{8.a
16f#
8a
8a
=31
8a
8d
4e}
=32
{8a
8a
8f#
8a
=33
8a
8d
4e}
=34
{4e
8f#
8e
=35
4d
4B
=36
8b
8b
8b
8f#
=37
2a}
==
!!!AGN: Xiaodiao. Xin minge
!! Notenbeilage kopiert. Derzeitige chines. Kinderlieder Diese
!!    Sammlung enthaelt mit Stand 1987 wenigstens 32 Aufnahmen mit dem Titel
!!    "Dui hua". Wenig Verzierungen.
!!!ONB: ESAC (Essen Associative Code) Database: CHINA
!!!AMT: simple duple
!!!AIN: vox
!!!EED: Helmut Schaffrath
!!!EEV: 1.0
*-
